public/imgs/svg/headphones.svg

<svg width="18" height="16" viewBox="0 0 18 16" fill="none" xmlns="http://www.w3.org/2000/svg">
<path d="M0 13.3333V8C6.58375e-08 3.58172 3.58172 0 8 0C12.4183 0 16 3.58172 16 8V13.3333" stroke="#CFCBD2" stroke-width="2" stroke-linecap="round" stroke-linejoin="round"/>
<path d="M15 10.7778H16C16 10.2255 15.5523 9.77783 15 9.77783V10.7778ZM1 10.7778V9.77783C0.447715 9.77783 0 10.2255 0 10.7778H1ZM13.5556 11.5556C13.5556 11.6783 13.4561 11.7778 13.3333 11.7778V9.77783C12.3515 9.77783 11.5556 10.5738 11.5556 11.5556H13.5556ZM13.5556 14.2223V11.5556H11.5556V14.2223H13.5556ZM13.3333 14.0001C13.4561 14.0001 13.5556 14.0995 13.5556 14.2223H11.5556C11.5556 15.2041 12.3515 16.0001 13.3333 16.0001V14.0001ZM14.2222 14.0001H13.3333V16.0001H14.2222V14.0001ZM14 14.2223C14 14.0995 14.0995 14.0001 14.2222 14.0001V16.0001C15.2041 16.0001 16 15.2041 16 14.2223H14ZM14 10.7778V14.2223H16V10.7778H14ZM13.3333 11.7778H15V9.77783H13.3333V11.7778ZM13.3333 7.77783C11.2469 7.77783 9.55556 9.4692 9.55556 11.5556H11.5556C11.5556 10.5738 12.3515 9.77783 13.3333 9.77783V7.77783ZM16 7.77783H13.3333V9.77783H16V7.77783ZM18 9.77783C18 8.67326 17.1046 7.77783 16 7.77783V9.77783H18ZM18 14.2223V9.77783H16V14.2223H18ZM14.2222 18.0001C16.3086 18.0001 18 16.3087 18 14.2223H16C16 15.2041 15.2041 16.0001 14.2222 16.0001V18.0001ZM13.3333 18.0001H14.2222V16.0001H13.3333V18.0001ZM9.55556 14.2223C9.55556 16.3087 11.2469 18.0001 13.3333 18.0001V16.0001C12.3515 16.0001 11.5556 15.2041 11.5556 14.2223H9.55556ZM9.55556 11.5556V14.2223H11.5556V11.5556H9.55556ZM0 7.77783C-1.10457 7.77783 -2 8.67326 -2 9.77783H0V7.77783ZM2.66667 7.77783H0V9.77783H2.66667V7.77783ZM6.44444 11.5556C6.44444 9.4692 4.75308 7.77783 2.66667 7.77783V9.77783C3.64851 9.77783 4.44444 10.5738 4.44444 11.5556H6.44444ZM6.44444 14.2223V11.5556H4.44444V14.2223H6.44444ZM2.66667 18.0001C4.75308 18.0001 6.44444 16.3087 6.44444 14.2223H4.44444C4.44444 15.2041 3.64851 16.0001 2.66667 16.0001V18.0001ZM1.77778 18.0001H2.66667V16.0001H1.77778V18.0001ZM-2 14.2223C-2 16.3087 -0.308631 18.0001 1.77778 18.0001V16.0001C0.795938 16.0001 0 15.2041 0 14.2223H-2ZM-2 9.77783V14.2223H0V9.77783H-2ZM2 14.2223V10.7778H0V14.2223H2ZM1.77778 14.0001C1.90051 14.0001 2 14.0995 2 14.2223H0C0 15.2041 0.795938 16.0001 1.77778 16.0001V14.0001ZM2.66667 14.0001H1.77778V16.0001H2.66667V14.0001ZM2.44444 14.2223C2.44444 14.0995 2.54394 14.0001 2.66667 14.0001V16.0001C3.64851 16.0001 4.44444 15.2041 4.44444 14.2223H2.44444ZM2.44444 11.5556V14.2223H4.44444V11.5556H2.44444ZM2.66667 11.7778C2.54394 11.7778 2.44444 11.6783 2.44444 11.5556H4.44444C4.44444 10.5738 3.64851 9.77783 2.66667 9.77783V11.7778ZM1 11.7778H2.66667V9.77783H1V11.7778Z" fill="#CFCBD2"/>
</svg>

<svg width="18" height="16" fill="none" xmlns="http://www.w3.org/2000/svg"><path d="M0 13.333V8a8 8 0 1 1 16 0v5.333" stroke="#CFCBD2" stroke-width="2" stroke-linecap="round" stroke-linejoin="round"/><path d="M15 10.778h1a1 1 0 0 0-1-1v1zm-14 0v-1a1 1 0 0 0-1 1h1zm12.556.778c0 .122-.1.222-.223.222v-2c-.982 0-1.777.796-1.777 1.778h2zm0 2.666v-2.666h-2v2.666h2zM13.333 14c.123 0 .223.1.223.222h-2c0 .982.796 1.778 1.777 1.778v-2zm.89 0h-.89v2h.89v-2zm-.223.222c0-.122.1-.222.222-.222v2c.982 0 1.778-.796 1.778-1.778h-2zm0-3.444v3.444h2v-3.444h-2zm-.667 1H15v-2h-1.667v2zm0-4a3.778 3.778 0 0 0-3.777 3.778h2c0-.982.796-1.778 1.777-1.778v-2zm2.667 0h-2.667v2H16v-2zm2 2a2 2 0 0 0-2-2v2h2zm0 4.444V9.778h-2v4.444h2zM14.222 18A3.778 3.778 0 0 0 18 14.222h-2c0 .982-.796 1.778-1.778 1.778v2zm-.889 0h.89v-2h-.89v2zm-3.777-3.778A3.778 3.778 0 0 0 13.333 18v-2a1.778 1.778 0 0 1-1.777-1.778h-2zm0-2.666v2.666h2v-2.666h-2zM0 7.778a2 2 0 0 0-2 2h2v-2zm2.667 0H0v2h2.667v-2zm3.777 3.778a3.778 3.778 0 0 0-3.777-3.778v2c.982 0 1.777.796 1.777 1.778h2zm0 2.666v-2.666h-2v2.666h2zM2.667 18a3.778 3.778 0 0 0 3.777-3.778h-2c0 .982-.795 1.778-1.777 1.778v2zm-.89 0h.89v-2h-.89v2zM-2 14.222A3.778 3.778 0 0 0 1.778 18v-2A1.778 1.778 0 0 1 0 14.222h-2zm0-4.444v4.444h2V9.778h-2zm4 4.444v-3.444H0v3.444h2zM1.778 14c.123 0 .222.1.222.222H0C0 15.204.796 16 1.778 16v-2zm.889 0h-.89v2h.89v-2zm-.223.222c0-.122.1-.222.223-.222v2c.982 0 1.777-.796 1.777-1.778h-2zm0-2.666v2.666h2v-2.666h-2zm.223.222a.222.222 0 0 1-.223-.222h2c0-.982-.795-1.778-1.777-1.778v2zm-1.667 0h1.667v-2H1v2z" fill="#CFCBD2"/></svg>
